X:1
T:Panis angelicus Music by césar franck
%%score { 1 | ( 2 3 4 ) }
L:1/4
Q:1/4=200
M:2/2
I:linebreak $
K:Emin
V:1 treble 
L:1/8
V:2 bass 
V:3 bass 
V:4 bass 
V:1
"^Moderato""G" !3!B4"D7" B2 A2 |"G" A>G G4 z2 | B4"D7" B2 A2 |"G" A>G G4 z2 |"C" !5!e4 e2 d2 |$ %5
[I:staff +1] z2 G, C2 E,2 x |"D"[I:staff -1] A3 A A2 G2 | d8 |"D" B4 B2 A2 | A>G G4 z2 |$ %10
"Bm" !5!d4"F#" d2 ^c2 |"Fdim" ^c>B B4 z2 |"A7" !3!B4 A2 z2 |"D" d4 A2 z2 |"A7" e2 GA B3 !1!G |$ %15
"F#7" !2!F6 z2 |"Bm" B4 F2 z2 |"_RA""B7b9" c3 A"Em" G2 z2 |"A7" !3!^c2 de B3 c | %19
!>(!"D" d6!>)! z2 |$"A" !2!^c2 de B2 c2 |"D" d2 ef"A" ^c2"D" d2 |"A7" e2 !3!fg f2 e2 | %23
"D7" d6"Fdim" !4!=c2 |"G" B4"D7" B2 A2 |$"^LL""G" A>G G4 z2 | B4"D7" B2 A2 |"G" A>G G4 z2 | %28
"C" e4 e2 d2 |"Am7" c3 c c2 B2 | A3 A A2 G2 |$"D7""Am7" d6 z2 |"D" d4"Am7" c2 B2 | %33
"D" B>A A4"Am7" z2 |"D" d4"Am7" e2 c2 |"D" B>A"Am7" A4 z2 |$"^Lb""D7" !5!d4-"G" dBAG | %37
"D7" c3 A"G" B2 B2- |"Am7/D" B2 AG"D7" A3 B |"G" G6 z2 |"E7" e4-"Am" ecBA |$ %41
"^dò""E7" d3 B"Am" c2 c2- |!fine!"D7" c2 Ac"G" B2 AG |"Gsus4" A4-"D7" A3 G |!>(!"G" G8-!>)! | %45
 !fermata!G6 z2 |] %46
V:2
 !1!!4![G,D]2 !1!!5![F,D] !2!C | B,4 | [G,D]2 [F,D] C | B,4 | z/ G,/ C2 B, |$ %5
 E,2[I:staff -1] c/ !4!c B/ |[I:staff +1] F, D,[I:staff -1] z[I:staff +1] [B,,D,] | %7
[I:staff -1] F2"^Em D’" !1!G !2!A |[I:staff +1] [G,D]2 [F,D] C | B,4 |$ [F,B,]2 [F,^A,]2 | %11
 [^F,G,]2 G, F, | [E,=G,^C] [E,G,C]2 E, | [D,F,A,] [D,F,A,]2 D, | [A,,^C,G,]2 A,, E, |$ %15
 [^A,,E,F,] ^C, F, C, | [B,,D,F,]2- [B,,D,F,]/F,/D,/B,,/ | [^D,A,] B,, [E,G,] B,, | %18
 [A,,^C,G,]2 =D, E, | [F,A,] (D, F, G,) |$ [A,^CE]3 G, | [F,A,D]2 E, D, | %22
 [A,,^C,G,]2 [D,G,] [E,G,] | [A,C] [G,B,] [=F,^G,] [^F,A,] | [=G,D]2 [F,D] C |$ B,4 | %26
 [G,D]2 [F,D] C | B,4 | [C,E,G,]2 C, B,, | [A,,G,]2 A,, B,, | [C,G,A,] C,2 !3!E, |$ %31
 !2!F, !5!D, !1!!3![G,C] !2!B, | !1!!4![F,A,] D, [G,C] E, | F, D, [G,C] B, | [F,A,] D, [G,C] E, | %35
 F, D, [G,C] B, |$ !1!!5![C,A,] !2!F, !1!!5![B,,G,]2 | [F,A,]2 G,2 | [D,E,C]2 [F,C]2 | %39
 !3!G, B, A, G, | [D,^G,] B, [C,A,]2 |$ [^G,B,]2 [A,C]2 | [F,C]2 =G,2 | D4 | [G,B,]2 D, B,, | %45
[I:staff -1] !fermata!B,3 x |] %46
V:3
 x4 | !1!!4!G,2 !5!D, !4!E, | x4 | G,2 !3!E, D, | C,2 C, D, |$ x5/2 G, D,/ | C,2 [C,F,] x | %7
 A,, !2!F, !1!!4![E,G,] !1!!5![D,C] | x4 | G,2 D, E,/G,/ |$ x4 | x4 | x4 | x4 | x4 |$ x4 | x4 | %17
 x4 | x4 | x4 |$ x4 | x4 | x4 | x4 | x4 |$ G,2 D, E, | x4 | G,2 E, D, | x4 | x4 | x4 |$ x4 | x4 | %33
 x4 | x4 | x4 |$ x4 | x4 | x4 | x4 | x4 |$ x4 | D,4 | C4 | x4 | !fermata![G,,D,G,]3 z |] %46
V:4
 x4 | x4 | x4 | x4 | x4 |$ x4 | x4 | x4 | x4 | x4 |$ x4 | x4 | x4 | x4 | x4 |$ x4 | x4 | x4 | x4 | %19
 x4 |$ x4 | x4 | x4 | x4 | x4 |$ x4 | x4 | x4 | x4 | x4 | x4 |$ x4 | x4 | x4 | x4 | x4 |$ x4 | x4 | %38
 x4 | x4 | x4 |$ x4 | x4 | G,2 F,2 | x4 | x4 |] %46

